svg/icons/apple.svg

<?xml version="1.0" encoding="UTF-8"?>
<svg width="33px" height="40px" viewBox="0 0 33 40" version="1.1" xmlns="http://www.w3.org/2000/svg" xmlns:xlink="http://www.w3.org/1999/xlink">
    <!-- Generator: Sketch 43 (38999) - http://www.bohemiancoding.com/sketch -->
    <title>apple</title>
    <desc>Created with Sketch.</desc>
    <defs></defs>
    <g id="Page-1" stroke="none" stroke-width="1" fill="none" fill-rule="evenodd">
        <g id="01NO_tengo_webcam" transform="translate(-418.000000, -801.000000)" fill="#E3E3E3">
            <g id="apple" transform="translate(418.000000, 801.000000)">
                <path d="M24.30108,3.7760555 C23.9161119,4.94714427 23.2932406,6.03253407 22.5424994,6.93527097 L22.5424994,6.93692677 C21.785012,7.84483487 20.7732044,8.64755482 19.6475796,9.17978566 C18.6144955,9.66824519 17.4820631,9.93129889 16.3551761,9.84422976 L16.0103005,9.81758079 L15.9648822,9.47720518 C15.8184785,8.37950503 15.9875441,7.26827514 16.3436086,6.23993246 C16.7579524,5.04325753 17.4291088,3.95136869 18.1492762,3.12399101 L18.1491501,3.12386605 C18.8944074,2.25853895 19.8938302,1.50565026 20.9641462,0.960140963 C22.0380781,0.412758926 23.1914694,0.0704761968 24.2412321,0.0280829934 L24.6380514,0.0120561036 L24.681547,0.405011236 C24.8086929,1.55426196 24.6540628,2.70226155 24.301086,3.7760737 L24.30108,3.7760555 Z" id="Shape"></path>
                <path d="M31.5972215,14.100217 C31.2167926,14.3335285 27.5397919,16.5887591 27.5853711,21.1345474 C27.6334684,26.6147425 32.3213918,28.5144881 32.5801632,28.6193138 L32.5818337,28.6193138 L32.5930228,28.6239063 L32.9608453,28.7748652 L32.8348655,29.1479503 C32.8273956,29.1700693 32.8358741,29.1465444 32.8249687,29.1812538 C32.7053556,29.5611183 31.8944778,32.1360551 30.0627036,34.7892607 C29.2314943,35.9927468 28.3846231,37.1944184 27.3847387,38.1213342 C26.3494477,39.0810416 25.1670917,39.7288664 23.7064597,39.7557646 C22.3297596,39.7813826 21.4284549,39.3948311 20.4915248,38.9930043 C19.5981297,38.6098281 18.6690265,38.2113103 17.2150793,38.2113103 C15.6877517,38.2113103 14.7114308,38.6235721 13.7710209,39.0207145 C12.885789,39.394519 12.0296498,39.7560449 10.7962574,39.8048129 L10.7945869,39.8048129 C9.37038897,39.8572361 8.1353954,39.1690788 7.03782526,38.1498247 C5.98775303,37.1747149 5.06775498,35.897782 4.22939387,34.6958645 C2.33692298,31.9872967 0.691081471,28.0462655 0.18258516,24.0389215 C-0.235665397,20.7426892 0.113937758,17.3942425 1.72169982,14.6288577 C2.61922316,13.0815917 3.87363058,11.8188763 5.34022948,10.9377896 C6.80013826,10.0607473 8.47043723,9.56163327 10.209065,9.53579582 L10.209065,9.53576458 C11.7312235,9.50839693 13.166456,10.0729629 14.4223125,10.5669534 C15.3111043,10.9165446 16.1029789,11.2280541 16.6966293,11.2280541 C17.2210997,11.2280541 17.9941875,10.9259188 18.8953961,10.5737328 C20.4174613,9.97892657 22.2795452,9.25131192 24.248524,9.44538376 C25.0754129,9.48103034 26.797717,9.67735185 28.5582938,10.6230932 C29.6798517,11.2255862 30.8174504,12.1301218 31.7526006,13.4867175 L31.9991705,13.8444636 L31.6308435,14.080212 C31.6111444,14.0928336 31.6303077,14.0799621 31.5972446,14.1002066 L31.5972215,14.100217 Z" id="Shape"></path>
            </g>
        </g>
    </g>
</svg>

<svg width="33" height="40" viewBox="0 0 33 40" xmlns="http://www.w3.org/2000/svg"><title>apple</title><g fill="#E3E3E3" fill-rule="evenodd"><path d="M24.301 3.776a9.765 9.765 0 0 1-1.759 3.16 8.653 8.653 0 0 1-2.894 2.244c-1.034.488-2.166.751-3.293.664l-.345-.026-.045-.34c-.147-1.098.023-2.21.379-3.238a9.685 9.685 0 0 1 1.805-3.116c.745-.865 1.745-1.618 2.815-2.164 1.074-.547 2.227-.89 3.277-.932l.397-.016.044.393c.127 1.15-.028 2.297-.38 3.371z"/><path d="M31.597 14.1c-.38.234-4.057 2.489-4.012 7.035.048 5.48 4.736 7.38 4.995 7.484h.002l.011.005.368.15-.126.374c-.008.022 0-.001-.01.033-.12.38-.93 2.955-2.762 5.608-.832 1.204-1.678 2.405-2.678 3.332-1.036.96-2.218 1.608-3.679 1.635-1.376.025-2.278-.361-3.214-.763-.894-.383-1.823-.782-3.277-.782-1.527 0-2.504.413-3.444.81-.885.374-1.741.735-2.975.784h-.001c-1.425.052-2.66-.636-3.757-1.655-1.05-.975-1.97-2.252-2.809-3.454C2.337 31.987.691 28.046.183 24.039c-.419-3.296-.07-6.645 1.539-9.41a10.367 10.367 0 0 1 3.618-3.691 9.728 9.728 0 0 1 4.87-1.402c1.521-.028 2.956.537 4.212 1.031.89.35 1.681.661 2.275.661.524 0 1.297-.302 2.198-.654 1.522-.595 3.385-1.323 5.354-1.129.826.036 2.549.232 4.31 1.178a9.037 9.037 0 0 1 3.194 2.864l.246.357-.368.236c-.02.013 0 0-.034.02z"/></g></svg>
